X:1
T:Spring
T:Vivaldi
%%score { 1 | 2 }
L:1/8
M:4/4
K:A
V:1 treble nm="Piano" snm="Pno."
V:2 bass 
V:1
 A2 | c2 c2 c2 BA | e6 ed | c2 c2 c2 BA | e6 ed | c2 de d2 c2 | B2 G2 E2 A2 | c2 c2 c2 BA | e6 ed | %9
 c2 c2 c2 BA | e6 ed | c2 de d2 c2 | B4 z2 A2 | e2 dc d2 e2 | f2 e4 A2 | e2 dc d2 e2 | f2 e4 A2 | %17
 f2 e4 d2 | c2 BA B4 | A4 z2 A2 | e2 dc d2 e2 | f2 e4 A2 | e2 dc d2 e2 | f2 e4 A2 | f2 e4 d2 | %25
 c2 BA B4 | A6 z2 |] %27
V:2
 A,,2 | A,,4 A,,4 | C,6 C,B,, | A,,4 A,,4 | C,6 C,B,, | A,,2 B,,C, B,,2 A,,2 | E,,6 A,,2 | %7
 A,,4 A,,4 | C,6 C,B,, | A,,4 A,,4 | C,6 C,B,, | A,,2 B,,C, B,,2 A,,2 | E,,4 z2 A,,2 | %13
 C,2 B,,A,, B,,2 C,2 | D,2 C,4 A,,2 | C,2 B,,A,, B,,2 C,2 | D,2 C,4 A,,2 | D,2 C,4 B,,2 | %18
 A,,2 A,,2 E,,4 | A,,4 z2 A,,2 | C,2 B,,A,, B,,2 C,2 | D,2 C,4 A,,2 | C,2 B,,A,, B,,2 C,2 | %23
 D,2 C,4 A,,2 | D,2 C,4 B,,2 | A,,2 A,,2 E,,4 | A,,6 z2 |] %27

